Yosa-Max/places/16x16/folder-git.svg

<?xml version="1.0" encoding="UTF-8"?>
<svg id="svg6" version="1.1" viewBox="0 0 16 16" xmlns="http://www.w3.org/2000/svg">
 <defs id="defs3051">
  <style id="current-color-scheme" type="text/css">.ColorScheme-Text {
        color:#4d4d4d;
      }</style>
 </defs>
 <path id="circle4175" d="m4.601912 1a1.6990443 1.7500001 0 0 0-1.6990445 1.7500003 1.6990443 1.7500001 0 0 0 1.1326963 1.6474613v7.2050774a1.6990443 1.7500001 0 0 0-1.1326963 1.647463 1.6990443 1.7500001 0 0 0 1.6990445 1.749998 1.6990443 1.7500001 0 0 0 1.6990442-1.749998 1.6990443 1.7500001 0 0 0-1.086238-1.631511c0.2158883-1.39215 1.3709978-2.451823 2.7852823-2.451823 2.0301935 0 3.6756325-1.5621863 3.9157645-3.5843102a1.6990443 1.7500001 0 0 0 1.181367-1.6656903 1.6990443 1.7500001 0 0 0-1.699042-1.7500008 1.6990443 1.7500001 0 0 0-1.6990454 1.7500008 1.6990443 1.7500001 0 0 0 1.0862374 1.6315104c-0.215888 1.392153-1.370997 2.4518234-2.7852815 2.4518234-1.1134873 0-2.1129693 0.4718437-2.8317404 1.2281904v-4.8307301a1.6990443 1.7500001 0 0 0 1.1326961-1.6474613 1.6990443 1.7500001 0 0 0-1.6990442-1.7500003zm0 1.1666667a0.5663481 0.58333342 0 0 1 0.5663481 0.5833336 0.5663481 0.58333342 0 0 1-0.5663481 0.5833336 0.5663481 0.58333342 0 0 1-0.5663482-0.5833336 0.5663481 0.58333342 0 0 1 0.5663482-0.5833336zm6.796178 1.1666672a0.5663481 0.58333342 0 0 1 0.566347 0.5833336 0.5663481 0.58333342 0 0 1-0.566347 0.5833334 0.5663481 0.58333342 0 0 1-0.56635-0.5833334 0.5663481 0.58333342 0 0 1 0.56635-0.5833336zm-6.796178 9.3333321a0.5663481 0.58333342 0 0 1 0.5663481 0.583336 0.5663481 0.58333342 0 0 1-0.5663481 0.583334 0.5663481 0.58333342 0 0 1-0.5663482-0.583334 0.5663481 0.58333342 0 0 1 0.5663482-0.583336z" style="fill:#4d4d4d"/>
</svg>

<?xml version="1.0" encoding="UTF-8" standalone="no"?>
<svg
   xmlns:dc="http://purl.org/dc/elements/1.1/"
   xmlns:cc="http://creativecommons.org/ns#"
   xmlns:rdf="http://www.w3.org/1999/02/22-rdf-syntax-ns#"
   xmlns:svg="http://www.w3.org/2000/svg"
   xmlns="http://www.w3.org/2000/svg"
   id="svg6"
   version="1.1"
   viewBox="0 0 16 16">
  <metadata
     id="metadata10">
    <rdf:RDF>
      <cc:Work
         rdf:about="">
        <dc:format>image/svg+xml</dc:format>
        <dc:type
           rdf:resource="http://purl.org/dc/dcmitype/StillImage" />
        <dc:title></dc:title>
      </cc:Work>
    </rdf:RDF>
  </metadata>
  <defs
     id="defs3051">
    <style
       id="current-color-scheme"
       type="text/css">
      .ColorScheme-Text {
        color:#4d4d4d;
      }
      </style>
  </defs>
  <path
     id="circle4175"
     d="M 4.601912,1 A 1.6990443,1.7500001 0 0 0 2.9028675,2.7500003 1.6990443,1.7500001 0 0 0 4.0355638,4.3974616 V 11.602539 A 1.6990443,1.7500001 0 0 0 2.9028675,13.250002 1.6990443,1.7500001 0 0 0 4.601912,15 1.6990443,1.7500001 0 0 0 6.3009562,13.250002 1.6990443,1.7500001 0 0 0 5.2147182,11.618491 c 0.2158883,-1.39215 1.3709978,-2.451823 2.7852823,-2.451823 2.0301935,0 3.6756325,-1.5621863 3.9157645,-3.5843102 A 1.6990443,1.7500001 0 0 0 13.097132,3.9166675 1.6990443,1.7500001 0 0 0 11.39809,2.1666667 1.6990443,1.7500001 0 0 0 9.6990446,3.9166675 1.6990443,1.7500001 0 0 0 10.785282,5.5481779 c -0.215888,1.392153 -1.370997,2.4518234 -2.7852815,2.4518234 -1.1134873,0 -2.1129693,0.4718437 -2.8317404,1.2281904 V 4.3974616 A 1.6990443,1.7500001 0 0 0 6.3009562,2.7500003 1.6990443,1.7500001 0 0 0 4.601912,1 Z m 0,1.1666667 A 0.5663481,0.58333342 0 0 1 5.1682601,2.7500003 0.5663481,0.58333342 0 0 1 4.601912,3.3333339 0.5663481,0.58333342 0 0 1 4.0355638,2.7500003 0.5663481,0.58333342 0 0 1 4.601912,2.1666667 Z M 11.39809,3.3333339 A 0.5663481,0.58333342 0 0 1 11.964437,3.9166675 0.5663481,0.58333342 0 0 1 11.39809,4.5000009 0.5663481,0.58333342 0 0 1 10.83174,3.9166675 0.5663481,0.58333342 0 0 1 11.39809,3.3333339 Z M 4.601912,12.666666 A 0.5663481,0.58333342 0 0 1 5.1682601,13.250002 0.5663481,0.58333342 0 0 1 4.601912,13.833336 0.5663481,0.58333342 0 0 1 4.0355638,13.250002 0.5663481,0.58333342 0 0 1 4.601912,12.666666 Z"
     style="opacity:1;fill:#4d4d4d;fill-opacity:1;stroke:none;stroke-width:0.08424623;stroke-linecap:square;stroke-linejoin:miter;stroke-miterlimit:4;stroke-dasharray:none;stroke-dashoffset:0;stroke-opacity:1" />
</svg>
